X:1
T:Smash the Windows or Roaring Jelly  "Single jig at 137 bpm"
M:6/8
L:1/8
Q:80
C:arr. Kent Hiestand
S:Jig
K:HP
|: e | \
{g}ABAc2e | \
a2{GdG}a{g}age | \
{g}d2fc2e |
{g}B2cdcB | \
{g}ABAc2e | \
a2{GdG}a{g}age |
{g}Bgf{g}edc | \
{Gdc}d3{G}d2 :| \
a |
{g}a2f{g}d2f | \
{g}A2a{g}agf | \
{a}g2e{g}c2e |
{g}A2g{a}gfe | \
{g}f2d{a}g2e | \
agf{a}gfe |
{g}fedcBc | \
{Gdc}d3{G}d2a | \
{g}agf{e}fed |
Adfagf | \
{a}gfe{A}edc | \
{g}Ace{a}gfd |
{g}fed{a}gfe | \
agf{a}gfe | \
{g}fedcde |
{Gdc}d3{G}d2|]
